X: 323
T: Bezme Gel Ben Zârı...
C: Ahmet Avni Konuk
O: Turkey
F: http://compmusic.upf.edu/node/140
N: neva--kupe--duyek--bezme--ahmet_avni_konuk
N: makam= neva
N: form= kupe
N: usul= duyek = 8/4
M: 8/4
L: 1/16
K: C _2/4B ^3/4f  
Q: 1/4=57
%%MIDI tuningsystem comma53
z4 d2d2 d4 d2e2 e2d2 c2B2 dccB c2d2  | \
w:  Bez *  *  me  *  gel  *  *  *  ben   | 
c2B2 d2d2 d4 c2B2 B2A2 {c}B2A2 A6z2  | 
w:  *  *  zâ *  *  rı  *  bek *  *  *  *  let  | 
z4 f8 f4 e2f2 g2a2 a2g2 ^2/4f2e2  | \
w:  me  a man  *  *  *  ey   | 
d4 e2g2 ^2/4f3e d4 ede=f e2d2 d6z2  | 
w:  *  gon *  *  *  ca  leb    | 
z4 g8 a4 a2c'2 b2a2 a2g2 f2^2/4e2  | \
w:  Vasf_ ı  hüs *  *  *  nün  | 
f4 e2f2 e4 f4 g4 a2g2 ^1/4f3e {=f}d4  | 
w:  *  dür  *  *  Ne vâ *  *  yı   | 
z4 c2d2 c4 d4 e2=f2 e2d2 e3d c2d2  | \
w:  mürg_ *  *  i  dil  *  *  *  her   | 
c4 B2e2 d4 c2B2 B2A2 {c}B2A2 A6z2  | 
w:  *  rûz_ *  *  i  *  şeb    | 
|


